X: 4
T:Shepherds' Hay, JG (via Shakespeare MM)
M:4/4
L:1/8
Q:120
S:JG
R:Reel
A:Bidford
P:A2(AB)6A
K:G
P:A
FGAF G2G2|FGAF E2E2|FGAF G2FG|A2A,2 D3A||
P:B
F2D2 G3E |F2D2 E4  |FGAF G2FG|A2A,2 D3A||

